; generated by Slic3r 0.9.11-dev on 2013-07-14 at 22:14:05

; layer_height = 0.3
; perimeters = 3
; top_solid_layers = 3
; bottom_solid_layers = 3
; fill_density = 0.3
; perimeter_speed = 30
; infill_speed = 60
; travel_speed = 130
; nozzle_diameter = 0.5
; filament_diameter = 1.75
; extrusion_multiplier = 1
; perimeters extrusion width = 0.50mm
; infill extrusion width = 0.70mm
; solid infill extrusion width = 0.70mm
; top infill extrusion width = 0.70mm

G21 ; set units to millimeters
M107
M190 S55 ; wait for bed temperature to be reached
M104 S205 ; set temperature
G28 ; home all axes
M109 S205 ; wait for temperature to be reached
G90 ; use absolute coordinates
G92 E0
M82 ; use absolute distances for extrusion
G1 F1800.000 E-2.00000
G1 Z0.800 F7800.000
G92 E0
G1 X85.646 Y70.100
G1 Z0.300
G1 F1800.000 E2.00000
G1 X88.156 Y67.310 F540.000 E2.23404
G1 X88.636 Y66.830 E2.27637
G1 X89.176 Y66.390 E2.31981
G1 X92.216 Y64.190 E2.55383
G1 X92.776 Y63.830 E2.59535
G1 X93.376 Y63.530 E2.63718
G1 X96.796 Y62.000 E2.87083
G1 X97.436 Y61.750 E2.91368
G1 X98.096 Y61.570 E2.95635
G1 X101.766 Y60.790 E3.19033
G1 X102.436 Y60.690 E3.23258
G1 X103.116 Y60.650 E3.27506
G1 X106.866 Y60.650 E3.50892
G1 X107.546 Y60.690 E3.55140
G1 X108.216 Y60.790 E3.59364
G1 X111.886 Y61.570 E3.82763
G1 X112.546 Y61.750 E3.87029
G1 X113.186 Y61.990 E3.91291
G1 X116.616 Y63.520 E4.14713
G1 X117.216 Y63.830 E4.18925
G1 X117.786 Y64.200 E4.23163
G1 X120.816 Y66.400 E4.46514
G1 X121.346 Y66.830 E4.50771
G1 X121.826 Y67.310 E4.55004
G1 X124.326 Y70.090 E4.78320
G1 X124.756 Y70.620 E4.82576
G1 X125.136 Y71.200 E4.86900
G1 X127.016 Y74.450 E5.10315
G1 X127.326 Y75.050 E5.14527
G1 X127.566 Y75.690 E5.18789
G1 X128.726 Y79.250 E5.42139
G1 X128.906 Y79.910 E5.46406
G1 X129.006 Y80.580 E5.50630
G1 X129.396 Y84.310 E5.74018
G1 X129.436 Y84.990 E5.78266
G1 X129.396 Y85.670 E5.82514
G1 X129.006 Y89.400 E6.05902
G1 X128.906 Y90.080 E6.10189
G1 X128.726 Y90.750 E6.14515
G1 X128.056 Y92.760 E6.27728
G1 X127.576 Y94.270 E6.37609
G1 X127.326 Y94.920 E6.41952
G1 X127.016 Y95.540 E6.46275
G1 X125.136 Y98.790 E6.69690
G1 X124.766 Y99.360 E6.73928
G1 X124.336 Y99.890 E6.78184
G1 X121.826 Y102.680 E7.01588
G1 X121.346 Y103.160 E7.05821
G1 X120.816 Y103.590 E7.10078
G1 X117.786 Y105.790 E7.33429
G1 X117.216 Y106.160 E7.37667
G1 X116.616 Y106.470 E7.41879
G1 X113.186 Y108.000 E7.65301
G1 X112.546 Y108.240 E7.69563
G1 X111.886 Y108.420 E7.73829
G1 X108.216 Y109.200 E7.97228
G1 X107.546 Y109.300 E8.01452
G1 X106.866 Y109.340 E8.05700
G1 X103.116 Y109.340 E8.29086
G1 X102.436 Y109.300 E8.33334
G1 X101.766 Y109.200 E8.37559
G1 X98.096 Y108.420 E8.60957
G1 X97.436 Y108.240 E8.65224
G1 X96.796 Y107.990 E8.69508
G1 X93.376 Y106.460 E8.92874
G1 X92.776 Y106.160 E8.97057
G1 X92.216 Y105.800 E9.01209
G1 X89.176 Y103.600 E9.24611
G1 X88.636 Y103.160 E9.28955
G1 X88.156 Y102.680 E9.33188
G1 X85.646 Y99.890 E9.56592
G1 X85.216 Y99.360 E9.60848
G1 X84.846 Y98.780 E9.65139
G1 X82.976 Y95.530 E9.88522
G1 X82.666 Y94.930 E9.92734
G1 X82.426 Y94.300 E9.96938
G1 X81.266 Y90.730 E10.20347
G1 X81.086 Y90.070 E10.24614
G1 X80.986 Y89.390 E10.28900
G1 X80.596 Y85.670 E10.52226
G1 X80.556 Y84.990 E10.56474
G1 X80.596 Y84.310 E10.60722
G1 X80.986 Y80.580 E10.84110
G1 X81.086 Y79.910 E10.88335
G1 X81.266 Y79.250 E10.92601
G1 X82.426 Y75.690 E11.15951
G1 X82.666 Y75.060 E11.20155
G1 X82.976 Y74.460 E11.24367
G1 X84.846 Y71.210 E11.47750
G1 X85.216 Y70.630 E11.52041
G1 X85.599 Y70.159 E11.55829
G1 F1800.000 E9.55829
G1 Z0.800 F7800.000
G92 E0
G1 X102.629 Y83.277
G1 Z0.300
G1 F1800.000 E2.00000
G1 X103.039 Y82.822 F540.000 E2.03819
G1 X103.534 Y82.462 E2.07639
G1 X104.095 Y82.212 E2.11465
G1 X104.694 Y82.085 E2.15283
G1 X105.306 Y82.085 E2.19103
G1 X105.906 Y82.213 E2.22924
G1 X106.465 Y82.462 E2.26745
G1 X106.961 Y82.822 E2.30566
G1 X107.371 Y83.277 E2.34387
G1 X107.678 Y83.808 E2.38208
G1 X107.867 Y84.391 E2.42029
G1 X107.931 Y85.000 E2.45851
G1 X107.867 Y85.609 E2.49671
G1 X107.677 Y86.192 E2.53493
G1 X107.371 Y86.723 E2.57314
G1 X106.961 Y87.178 E2.61135
G1 X106.466 Y87.538 E2.64954
G1 X105.906 Y87.787 E2.68777
G1 X105.306 Y87.915 E2.72598
G1 X104.694 Y87.915 E2.76419
G1 X104.094 Y87.787 E2.80241
G1 X103.535 Y87.538 E2.84062
G1 X103.039 Y87.178 E2.87883
G1 X102.629 Y86.723 E2.91704
G1 X102.322 Y86.192 E2.95525
G1 X102.133 Y85.609 E2.99346
G1 X102.069 Y85.000 E3.03167
G1 X102.133 Y84.391 E3.06987
G1 X102.323 Y83.808 E3.10810
G1 X102.592 Y83.342 E3.14165
G1 X103.036 Y83.573 F7800.000
G1 X103.375 Y83.196 F540.000 E3.17329
G1 X103.786 Y82.897 E3.20494
G1 X104.250 Y82.691 E3.23663
G1 X104.746 Y82.585 E3.26827
G1 X105.254 Y82.585 E3.29992
G1 X105.750 Y82.691 E3.33158
G1 X106.214 Y82.897 E3.36323
G1 X106.625 Y83.196 E3.39489
G1 X106.964 Y83.573 E3.42654
G1 X107.218 Y84.012 E3.45820
G1 X107.375 Y84.495 E3.48986
G1 X107.428 Y85.000 E3.52151
G1 X107.375 Y85.505 E3.55316
G1 X107.218 Y85.988 E3.58483
G1 X106.964 Y86.427 E3.61648
G1 X106.625 Y86.804 E3.64814
G1 X106.214 Y87.103 E3.67978
G1 X105.750 Y87.309 E3.71145
G1 X105.254 Y87.415 E3.74311
G1 X104.746 Y87.415 E3.77477
G1 X104.250 Y87.309 E3.80642
G1 X103.786 Y87.103 E3.83808
G1 X103.375 Y86.804 E3.86973
G1 X103.036 Y86.427 E3.90139
G1 X102.782 Y85.988 E3.93305
G1 X102.625 Y85.505 E3.96470
G1 X102.572 Y85.000 E3.99636
G1 X102.625 Y84.495 E4.02801
G1 X102.782 Y84.012 E4.05968
G1 X102.998 Y83.638 E4.08667
G1 X103.426 Y83.896 F7800.000
G1 X103.712 Y83.569 F540.000 E4.11375
G1 X104.037 Y83.333 E4.13885
G1 X104.405 Y83.169 E4.16396
G1 X104.799 Y83.085 E4.18906
G1 X105.201 Y83.085 E4.21416
G1 X105.595 Y83.169 E4.23926
G1 X105.963 Y83.333 E4.26436
G1 X106.288 Y83.569 E4.28947
G1 X106.558 Y83.868 E4.31457
G1 X106.759 Y84.217 E4.33967
G1 X106.883 Y84.600 E4.36477
G1 X106.925 Y85.000 E4.38987
G1 X106.883 Y85.400 E4.41497
G1 X106.759 Y85.783 E4.44008
G1 X106.558 Y86.132 E4.46518
G1 X106.288 Y86.431 E4.49028
G1 X105.963 Y86.667 E4.51538
G1 X105.595 Y86.831 E4.54048
G1 X105.201 Y86.915 E4.56559
G1 X104.799 Y86.915 E4.59069
G1 X104.405 Y86.831 E4.61579
G1 X104.037 Y86.667 E4.64089
G1 X103.712 Y86.431 E4.66599
G1 X103.442 Y86.132 E4.69109
G1 X103.241 Y85.783 E4.71620
G1 X103.117 Y85.400 E4.74130
G1 X103.075 Y85.000 E4.76640
G1 X103.117 Y84.600 E4.79150
G1 X103.241 Y84.217 E4.81661
G1 X103.389 Y83.961 E4.83500
G1 X103.259 Y83.495 F7800.000
G1 X92.640 Y73.932
G1 X93.837 Y72.602 F540.000 E4.94658
G1 X96.658 Y70.552 E5.16408
G1 X99.845 Y69.133 E5.38159
G1 X103.256 Y68.408 E5.59909
G1 X106.744 Y68.408 E5.81659
G1 X110.155 Y69.133 E6.03410
G1 X113.342 Y70.552 E6.25160
G1 X116.163 Y72.602 E6.46911
G1 X118.497 Y75.194 E6.68661
G1 X120.241 Y78.214 E6.90411
G1 X121.319 Y81.531 E7.12162
G1 X121.496 Y83.221 E7.22755
G1 X121.683 Y85.000 E7.33912
G1 X121.319 Y88.469 E7.55663
G1 X120.241 Y91.786 E7.77413
G1 X118.497 Y94.806 E7.99163
G1 X116.163 Y97.398 E8.20914
G1 X113.342 Y99.448 E8.42664
G1 X110.155 Y100.867 E8.64415
G1 X106.744 Y101.592 E8.86165
G1 X103.256 Y101.592 E9.07915
G1 X99.845 Y100.867 E9.29666
G1 X96.658 Y99.448 E9.51416
G1 X93.837 Y97.398 E9.73167
G1 X91.503 Y94.806 E9.94917
G1 X89.759 Y91.786 E10.16667
G1 X88.681 Y88.469 E10.38418
G1 X88.317 Y85.000 E10.60168
G1 X88.681 Y81.531 E10.81919
G1 X89.759 Y78.214 E11.03669
G1 X91.503 Y75.194 E11.25419
G1 X92.589 Y73.987 E11.35545
G1 X89.300 Y78.010 F7800.000
G1 X91.096 Y74.898 F540.000 E11.57951
G1 X93.500 Y72.228 E11.80357
G1 X96.407 Y70.117 E12.02763
G1 X99.689 Y68.655 E12.25169
G1 X103.204 Y67.908 E12.47575
G1 X106.796 Y67.908 E12.69980
G1 X110.311 Y68.655 E12.92386
G1 X111.911 Y69.368 E13.03307
G1 X113.593 Y70.117 E13.14792
G1 X116.500 Y72.228 E13.37198
G1 X118.904 Y74.898 E13.59604
G1 X120.700 Y78.010 E13.82010
G1 X121.810 Y81.427 E14.04416
G1 X122.186 Y85.000 E14.26821
G1 X121.810 Y88.573 E14.49227
G1 X120.700 Y91.990 E14.71633
G1 X118.904 Y95.102 E14.94039
G1 X116.500 Y97.772 E15.16445
G1 X113.593 Y99.883 E15.38851
G1 X110.311 Y101.345 E15.61257
G1 X106.796 Y102.092 E15.83663
G1 X103.204 Y102.092 E16.06068
G1 X99.689 Y101.345 E16.28475
G1 X96.407 Y99.883 E16.50880
G1 X93.500 Y97.772 E16.73286
G1 X91.096 Y95.102 E16.95692
G1 X89.300 Y91.990 E17.18098
G1 X88.190 Y88.573 E17.40504
G1 X87.814 Y85.000 E17.62910
G1 X88.190 Y81.427 E17.85316
G1 X89.277 Y78.081 E18.07254
G1 X88.841 Y77.805 F7800.000
G1 X90.690 Y74.603 F378.000 E18.30315
G1 X93.164 Y71.855 E18.53376
G1 X96.156 Y69.681 E18.76438
G1 X99.534 Y68.177 E18.99499
G1 X103.151 Y67.408 E19.22560
G1 X106.849 Y67.408 E19.45622
G1 X110.466 Y68.177 E19.68683
G1 X112.114 Y68.911 E19.79932
G1 X113.844 Y69.681 E19.91744
G1 X116.836 Y71.855 E20.14806
G1 X119.310 Y74.603 E20.37867
G1 X121.159 Y77.805 E20.60928
G1 X122.302 Y81.322 E20.83990
G1 X122.689 Y85.000 E21.07051
G1 X122.302 Y88.678 E21.30112
G1 X121.159 Y92.195 E21.53174
G1 X119.310 Y95.397 E21.76235
G1 X116.836 Y98.145 E21.99296
G1 X113.844 Y100.319 E22.22358
G1 X110.466 Y101.823 E22.45419
G1 X106.849 Y102.592 E22.68480
G1 X103.151 Y102.592 E22.91542
G1 X99.534 Y101.823 E23.14603
G1 X96.156 Y100.319 E23.37664
G1 X93.164 Y98.145 E23.60726
G1 X90.690 Y95.397 E23.83787
G1 X88.841 Y92.195 E24.06848
G1 X87.698 Y88.678 E24.29910
G1 X87.311 Y85.000 E24.52971
G1 X87.698 Y81.322 E24.76032
G1 X88.817 Y77.877 E24.98626
G1 X89.339 Y77.770 F7800.000
G1 X92.451 Y74.735
G1 X103.277 Y85.561 F1080.000 E26.24305
G1 X103.230 Y84.583 E26.32339
G1 X92.892 Y74.245 E27.52355
G1 X93.333 Y73.755 E27.57765
G1 X103.519 Y83.941 E28.76015
G1 X103.997 Y83.489 E28.81420
G1 X93.774 Y73.265 E30.00102
G1 X94.240 Y72.800 E30.05505
G1 X104.659 Y83.220 E31.26467
G1 X105.697 Y83.327 E31.35029
G1 X94.779 Y72.409 E32.61777
G1 X95.318 Y72.017 E32.67247
G1 X118.031 Y94.730 E35.30923
G1 X117.590 Y95.220 E35.36333
G1 X106.682 Y84.311 E36.62969
G1 X106.786 Y85.346 E36.71506
G1 X117.149 Y95.710 E37.91814
G1 X116.708 Y96.199 E37.97224
G1 X106.513 Y86.004 E39.15581
G1 X106.053 Y86.475 E39.20984
G1 X116.267 Y96.689 E40.39562
G1 X115.810 Y97.163 E40.44965
G1 X105.412 Y86.765 E41.65681
G1 X104.452 Y86.736 E41.73562
G1 X115.271 Y97.555 E42.99160
G1 X114.732 Y97.947 E43.04630
G1 X92.010 Y75.224 E45.68412
G1 X91.627 Y75.773 E45.73899
G1 X114.193 Y98.338 E48.35863
G1 X113.654 Y98.730 E48.41333
G1 X91.287 Y76.363 E51.00994
G1 X90.946 Y76.953 E51.06587
G1 X113.110 Y99.117 E53.63883
G1 X112.466 Y99.403 E53.69670
G1 X90.605 Y77.543 E56.23445
G1 X90.265 Y78.133 E56.29038
G1 X111.822 Y99.690 E58.79292
G1 X111.178 Y99.977 E58.85079
G1 X89.990 Y78.789 E61.31044
G1 X89.762 Y79.492 E61.37108
G1 X110.534 Y100.263 E63.78247
G1 X109.862 Y100.523 E63.84155
G1 X89.534 Y80.194 E66.20150
G1 X89.305 Y80.897 E66.26214
G1 X109.095 Y100.686 E68.55948
G1 X108.327 Y100.849 E68.62390
G1 X89.077 Y81.599 E70.85863
G1 X88.985 Y82.438 E70.92793
G1 X107.559 Y101.012 E73.08418
G1 X106.792 Y101.176 E73.14860
G1 X88.897 Y83.281 E75.22601
G1 X88.808 Y84.123 E75.29553
G1 X105.880 Y101.195 E77.27739
G1 X104.949 Y101.195 E77.35380
G1 X88.720 Y84.965 E79.23788
G1 X88.821 Y85.997 E79.32299
G1 X104.019 Y101.195 E81.08729
G1 X103.031 Y101.138 E81.16848
G1 X88.930 Y87.037 E82.80546
G1 X89.040 Y88.077 E82.89131
G1 X101.849 Y100.887 E84.37837
G1 X100.667 Y100.635 E84.47757
G1 X89.387 Y89.355 E85.78706
G1 X89.835 Y90.734 E85.90606
G1 X99.283 Y100.182 E87.00283
G1 X97.605 Y99.435 F7800.000
G1 X90.575 Y92.405 F1080.000 E87.81888
G1 X91.964 Y94.724 F7800.000
G1 X94.970 Y97.730 F1080.000 E88.16783
G1 X95.857 Y71.625 F7800.000
G1 X118.404 Y94.173 F1080.000 E90.78534
G1 X118.745 Y93.583 E90.84127
G1 X96.396 Y71.234 E93.43574
G1 X96.950 Y70.857 E93.49074
G1 X119.085 Y92.992 E96.06044
G1 X119.426 Y92.402 E96.11637
G1 X97.594 Y70.570 E98.65086
G1 X98.238 Y70.283 E98.70873
G1 X119.767 Y91.812 E101.20800
G1 X120.031 Y91.146 E101.26685
G1 X98.882 Y69.997 E103.72204
G1 X99.526 Y69.710 E103.77991
G1 X120.259 Y90.443 E106.18683
G1 X120.488 Y89.741 E106.24746
G1 X100.209 Y69.462 E108.60162
G1 X100.976 Y69.299 E108.66603
G1 X120.716 Y89.038 E110.95758
G1 X120.934 Y88.326 E111.01874
G1 X101.744 Y69.136 E113.24652
G1 X102.512 Y68.972 E113.31094
G1 X121.023 Y87.484 E115.45989
G1 X121.111 Y86.641 E115.52940
G1 X103.279 Y68.809 E117.59952
G1 X104.206 Y68.805 E117.67560
G1 X121.200 Y85.799 E119.64840
G1 X121.278 Y84.947 E119.71866
G1 X105.137 Y68.805 E121.59251
G1 X106.068 Y68.805 E121.66892
G1 X121.169 Y83.907 E123.42202
G1 X121.060 Y82.867 E123.50787
G1 X107.078 Y68.885 E125.13096
G1 X108.260 Y69.137 E125.23015
G1 X120.950 Y81.827 E126.70332
G1 X120.571 Y80.517 E126.81524
G1 X109.442 Y69.388 E128.10721
G1 X110.873 Y69.888 F7800.000
G1 X120.123 Y79.138 F1080.000 E129.18111
G1 X119.307 Y77.391 F7800.000
G1 X112.550 Y70.634 F1080.000 E129.96544
G1 X115.346 Y72.499 F7800.000
G1 X117.257 Y74.410 F1080.000 E130.18726
M106 S222
M104 S190 ; set temperature
M140 S35 ; set bed temperature
G1 F1800.000 E128.18726
G1 Z1.100 F7800.000
G92 E0
G1 X107.361 Y83.284
G1 Z0.600
G1 F1800.000 E2.00000
G1 X107.667 Y83.813 F1800.000 E2.03805
G1 X107.855 Y84.393 E2.07611
G1 X107.919 Y85.000 E2.11416
G1 X107.855 Y85.607 E2.15222
G1 X107.667 Y86.187 E2.19027
G1 X107.361 Y86.716 E2.22833
G1 X106.953 Y87.169 E2.26638
G1 X106.699 Y87.354 E2.28596
G1 X106.459 Y87.528 E2.30444
G1 X105.902 Y87.776 E2.34249
G1 X105.305 Y87.903 E2.38054
G1 X104.695 Y87.903 E2.41860
G1 X104.098 Y87.776 E2.45666
G1 X103.541 Y87.528 E2.49471
G1 X103.047 Y87.169 E2.53276
G1 X102.639 Y86.716 E2.57082
G1 X102.333 Y86.187 E2.60887
G1 X102.145 Y85.607 E2.64693
G1 X102.081 Y85.000 E2.68498
G1 X102.145 Y84.393 E2.72304
G1 X102.333 Y83.813 E2.76109
G1 X102.639 Y83.284 E2.79915
G1 X103.047 Y82.831 E2.83720
G1 X103.541 Y82.472 E2.87525
G1 X104.098 Y82.224 E2.91331
G1 X104.695 Y82.097 E2.95137
G1 X105.305 Y82.097 E2.98942
G1 X105.902 Y82.224 E3.02748
G1 X106.459 Y82.472 E3.06553
G1 X106.953 Y82.831 E3.10358
G1 X107.311 Y83.229 E3.13696
G1 X106.955 Y83.580 F7800.000
G1 X107.207 Y84.017 F1800.000 E3.16846
G1 X107.363 Y84.498 E3.19996
G1 X107.416 Y85.000 E3.23146
G1 X107.363 Y85.502 E3.26296
G1 X107.207 Y85.983 E3.29446
G1 X106.955 Y86.420 E3.32596
G1 X106.617 Y86.796 E3.35746
G1 X106.287 Y87.035 E3.38287
G1 X106.208 Y87.092 E3.38896
G1 X105.747 Y87.298 E3.42046
G1 X105.253 Y87.403 E3.45196
G1 X104.747 Y87.403 E3.48346
G1 X104.253 Y87.298 E3.51496
G1 X103.792 Y87.092 E3.54646
G1 X103.383 Y86.796 E3.57796
G1 X103.045 Y86.420 E3.60946
G1 X102.793 Y85.983 E3.64096
G1 X102.637 Y85.502 E3.67246
G1 X102.584 Y85.000 E3.70396
G1 X102.637 Y84.498 E3.73546
G1 X102.793 Y84.017 E3.76696
G1 X103.045 Y83.580 E3.79846
G1 X103.383 Y83.204 E3.82996
G1 X103.792 Y82.908 E3.86146
G1 X104.253 Y82.702 E3.89296
G1 X104.748 Y82.597 E3.92447
G1 X105.253 Y82.597 E3.95596
G1 X105.747 Y82.702 E3.98746
G1 X106.208 Y82.908 E4.01896
G1 X106.617 Y83.204 E4.05046
G1 X106.905 Y83.524 E4.07728
G1 X106.548 Y83.875 F7800.000
G1 X106.748 Y84.222 F1800.000 E4.10223
G1 X106.872 Y84.602 E4.12717
G1 X106.913 Y85.000 E4.15212
G1 X106.872 Y85.398 E4.17706
G1 X106.748 Y85.778 E4.20201
G1 X106.548 Y86.125 E4.22696
G1 X106.280 Y86.422 E4.25190
G1 X105.993 Y86.631 E4.27403
G1 X105.591 Y86.820 E4.30174
G1 X105.200 Y86.903 E4.32668
G1 X104.800 Y86.903 E4.35163
G1 X104.409 Y86.820 E4.37657
G1 X104.043 Y86.657 E4.40152
G1 X103.720 Y86.422 E4.42646
G1 X103.452 Y86.125 E4.45141
G1 X103.252 Y85.778 E4.47635
G1 X103.128 Y85.398 E4.50130
G1 X103.087 Y85.000 E4.52624
G1 X103.128 Y84.602 E4.55119
G1 X103.252 Y84.222 E4.57614
G1 X103.452 Y83.875 E4.60108
G1 X103.720 Y83.578 E4.62603
G1 X104.043 Y83.343 E4.65097
G1 X104.409 Y83.180 E4.67592
G1 X104.800 Y83.097 E4.70086
G1 X105.200 Y83.097 E4.72581
G1 X105.591 Y83.180 E4.75075
G1 X105.957 Y83.343 E4.77570
G1 X106.280 Y83.578 E4.80064
G1 X106.498 Y83.820 E4.82091
G1 X106.756 Y83.861 F7800.000
G1 X119.281 Y76.358
G1 X120.330 Y78.175 F1800.000 E4.95173
G1 X121.414 Y81.511 E5.17050
G1 X121.781 Y85.000 E5.38927
G1 X121.414 Y88.489 E5.60805
G1 X120.330 Y91.825 E5.82683
G1 X118.576 Y94.863 E6.04560
G1 X116.228 Y97.470 E6.26438
G1 X113.390 Y99.532 E6.48315
G1 X110.185 Y100.959 E6.70193
G1 X107.975 Y101.429 E6.84287
G1 X106.754 Y101.689 E6.92070
G1 X103.246 Y101.689 E7.13948
G1 X99.814 Y100.959 E7.35825
